build/flags/GuineaBissau.svg

<svg xmlns="http://www.w3.org/2000/svg" fill="none" viewBox="0 0 28 28" focusable="false"><defs><filter id="Guinea-Bissau_svg__a"><feColorMatrix values="0 0 0 0 1 0 0 0 0 1 0 0 0 0 1 0 0 0 1 0"/></filter></defs><mask id="Guinea-Bissau_svg__b" width="28" height="20" x="0" y="4" maskUnits="userSpaceOnUse"><g filter="url(#Guinea-Bissau_svg__a)"><rect width="28" height="20" y="4" fill="#FFF" rx="3"/><rect width="28" height="20" y="4" stroke="#969696" stroke-opacity="0" stroke-width="0" rx="3"/></g></mask><path fill="none" d="M0 0H28V28H0z"/><rect width="28" height="20" y="4" fill="#FFF" rx="3"/><rect width="28" height="20" y="4" rx="3"/><g mask="url(#Guinea-Bissau_svg__b)"><path fill="#1AB558" fill-rule="evenodd" d="M0 24L28 24L28 13.3334L0 13.3334L0 24Z"/><path d="M28 24L28 13.3334L0 13.3334L0 24L28 24Z"/><path fill="#FFD952" fill-rule="evenodd" d="M0 13.3333L28 13.3333L28 4L0 4L0 13.3333Z"/><path d="M28 13.3333L28 4L0 4L0 13.3333L28 13.3333Z"/><path fill="#E72B42" fill-rule="evenodd" d="M0 24L10.6667 24L10.6667 4L0 4L0 24Z"/><path d="M10.6667 24L10.6667 4L0 4L0 24L10.6667 24Z"/><path fill="#262626" fill-rule="evenodd" d="M5.33333 15.2783L3.37405 16.6967L4.11754 14.395L2.16315 12.9699L4.58193 12.9657L5.33333 10.6666L6.08473 12.9657L8.50352 12.9699L6.54913 14.395L7.29262 16.6967L5.33333 15.2783Z"/><path d="M3.37405 16.6967L4.11754 14.395L2.16315 12.9699L4.58193 12.9657L5.33333 10.6666L6.08473 12.9657L8.50352 12.9699L6.54913 14.395L7.29262 16.6967L5.33333 15.2783L3.37405 16.6967Z"/></g></svg>

<svg xmlns="http://www.w3.org/2000/svg" fill="none" viewBox="0 0 28 28" focusable="false"><path fill="none" d="M0 0h28v28H0z"/><rect width="28" height="20" y="4" fill="#FFF" rx="3"/><rect width="28" height="20" y="4" rx="3"/><mask id="Guinea-Bissau_svg__a" width="28" height="20" x="0" y="4" mask-type="alpha" maskUnits="userSpaceOnUse"><rect width="28" height="20" y="4" fill="#FFF" rx="3"/><rect width="28" height="20" y="4" stroke="#979797" stroke-opacity="0" stroke-width="0" rx="3"/></mask><g mask="url(#Guinea-Bissau_svg__a)"><path fill="#1AB558" fill-rule="evenodd" d="M0 24h28V13.33H0z"/><path d="M28 24V13.33H0V24z"/></g><g mask="url(#Guinea-Bissau_svg__a)"><path fill="#FFD952" fill-rule="evenodd" d="M0 13.33h28V4H0z"/><path d="M28 13.33V4H0v9.33z"/></g><g mask="url(#Guinea-Bissau_svg__a)"><path fill="#E72B42" fill-rule="evenodd" d="M0 24h10.66V4H0z"/><path d="M10.66 24V4H0v20z"/></g><g mask="url(#Guinea-Bissau_svg__a)"><path fill="#262626" fill-rule="evenodd" d="m5.33 15.27-1.96 1.42.74-2.3-1.95-1.43h2.42l.75-2.3.75 2.3H8.5l-1.96 1.43.75 2.3z"/><path d="m3.37 16.69.74-2.3-1.95-1.43h2.42l.75-2.3.75 2.3H8.5l-1.96 1.43.75 2.3-1.96-1.42z"/></g></svg>
